assets/images/services/icon-services-3.svg

<svg viewBox="0 0 66 55.02" xmlns="http://www.w3.org/2000/svg"><g fill-rule="evenodd" transform="translate(0 -.01)"><path d="m66 47a8 8 0 0 1 -8 8h-44a8 8 0 0 1 -8-8v-27a8 8 0 0 1 8-8h44a8 8 0 0 1 8 8z" fill="#edc951"/><path d="m26 5h19v7h-19z" fill="#e56a77"/><path d="m47.82 33.82a11.37 11.37 0 1 1 -11.36-11.36 11.37 11.37 0 0 1 11.36 11.36z" fill="#e56a77"/><path d="m53.5 53h-44a9.51 9.51 0 0 1 -9.5-9.48v-27a9.51 9.51 0 0 1 9.5-9.52h44a9.51 9.51 0 0 1 9.5 9.5v27a9.51 9.51 0 0 1 -9.5 9.5zm-44-43a6.5 6.5 0 0 0 -6.5 6.51v27a6.5 6.5 0 0 0 6.5 6.49h44a6.51 6.51 0 0 0 6.5-6.5v-27a6.5 6.5 0 0 0 -6.5-6.5z"/><path d="m31.45 43.69a12.87 12.87 0 1 1 12.87-12.87 12.88 12.88 0 0 1 -12.87 12.87zm0-22.73a9.87 9.87 0 1 0 9.87 9.86 9.87 9.87 0 0 0 -9.87-9.82z"/><path d="m13.57 16.86a2.76 2.76 0 1 1 -5.52 0 2.76 2.76 0 0 1 5.52 0z"/><path d="m54.5 52.52a1.5 1.5 0 0 1 -1.5-1.52v-47h-5v4a1.5 1.5 0 0 1 -3 0v-5.49a1.5 1.5 0 0 1 1.5-1.51h8a1.5 1.5 0 0 1 1.5 1.51v48.49a1.5 1.5 0 0 1 -1.5 1.52z"/><path d="m40.5 10h-19a1.5 1.5 0 0 1 -1.5-1.49v-7a1.5 1.5 0 0 1 1.5-1.51h19a1.5 1.5 0 0 1 1.5 1.51v7a1.5 1.5 0 0 1 -1.5 1.49zm-17.5-3h16v-4h-16z"/></g></svg>

<svg id="Layer_1" data-name="Layer 1" xmlns="http://www.w3.org/2000/svg" viewBox="0 0 66 55.02"><title>icon-services-3</title><g id="group-16svg"><path id="path-1" d="M66,47a8,8,0,0,1-8,8H14a8,8,0,0,1-8-8V20a8,8,0,0,1,8-8H58a8,8,0,0,1,8,8h0Z" transform="translate(0 -0.01)" style="fill:#edc951;fill-rule:evenodd"/><path id="path-2" d="M26,5H45v7H26Z" transform="translate(0 -0.01)" style="fill:#e56a77;fill-rule:evenodd"/><path id="path-3" d="M47.82,33.82A11.37,11.37,0,1,1,36.46,22.46,11.37,11.37,0,0,1,47.82,33.82Z" transform="translate(0 -0.01)" style="fill:#e56a77;fill-rule:evenodd"/><path id="path-4" d="M53.5,53H9.5A9.51,9.51,0,0,1,0,43.52v-27A9.51,9.51,0,0,1,9.5,7h44a9.51,9.51,0,0,1,9.5,9.5v27A9.51,9.51,0,0,1,53.5,53ZM9.5,10A6.5,6.5,0,0,0,3,16.51v27A6.5,6.5,0,0,0,9.5,50h44a6.51,6.51,0,0,0,6.5-6.5v-27A6.5,6.5,0,0,0,53.5,10Z" transform="translate(0 -0.01)" style="fill-rule:evenodd"/><path id="path-5" d="M31.45,43.69A12.87,12.87,0,1,1,44.32,30.82,12.88,12.88,0,0,1,31.45,43.69Zm0-22.73a9.87,9.87,0,1,0,9.87,9.86A9.87,9.87,0,0,0,31.45,21Z" transform="translate(0 -0.01)" style="fill-rule:evenodd"/><path id="path-6" d="M13.57,16.86a2.76,2.76,0,1,1-5.52,0h0a2.76,2.76,0,0,1,5.52,0Z" transform="translate(0 -0.01)" style="fill-rule:evenodd"/><path id="path-7" d="M54.5,52.52A1.5,1.5,0,0,1,53,51V4H48V8a1.5,1.5,0,0,1-3,0V2.51A1.5,1.5,0,0,1,46.5,1h8A1.5,1.5,0,0,1,56,2.51h0V51A1.5,1.5,0,0,1,54.5,52.52Z" transform="translate(0 -0.01)" style="fill-rule:evenodd"/><path id="path-8" d="M40.5,10h-19A1.5,1.5,0,0,1,20,8.51v-7A1.5,1.5,0,0,1,21.5,0h19A1.5,1.5,0,0,1,42,1.51h0v7A1.5,1.5,0,0,1,40.5,10ZM23,7H39V3H23Z" transform="translate(0 -0.01)" style="fill-rule:evenodd"/></g></svg>
